X:1
T:Bourr?e
C:Trad. Auvergne
Z:Dave Holland <dave@biff.org.uk>
M:3/8
L:1/16
R:Bourree
Q:3/8=69
K:G
ABAGFA|G2GABc|d2cdcB|ABA2G2|
ABAGFA|G2GABc|ddcdcB|1A2d4:|2A6||
|:ABcBAB|G2ABAG|F2EDEF|1,3G2A4:|2,4G6:|
"Intro"G4F2|G4F2|G6||"Fin"G2Bcde|d2BcBA|G4F2|G6|]
<end>
<start>
